icons/i_schedule_school_date_time_fill.svg

<svg width="48" height="48" viewBox="0 0 48 48" fill="none" xmlns="http://www.w3.org/2000/svg">
<path fill-rule="evenodd" clip-rule="evenodd" d="M12 21C10.8954 21 10 21.8954 10 23V25C10 26.1046 10.8954 27 12 27H14C15.1046 27 16 26.1046 16 25V23C16 21.8954 15.1046 21 14 21H12ZM12 23V25H14V23H12Z" fill="black"/>
<path fill-rule="evenodd" clip-rule="evenodd" d="M18 23C18 21.8954 18.8954 21 20 21H22C23.1046 21 24 21.8954 24 23V25C24 26.1046 23.1046 27 22 27H20C18.8954 27 18 26.1046 18 25V23ZM20 23H22V25H20V23Z" fill="black"/>
<path fill-rule="evenodd" clip-rule="evenodd" d="M28 21C26.8954 21 26 21.8954 26 23V25C26 26.1046 26.8954 27 28 27H30C31.1046 27 32 26.1046 32 25V23C32 21.8954 31.1046 21 30 21H28ZM28 23V25H30V23H28Z" fill="black"/>
<path fill-rule="evenodd" clip-rule="evenodd" d="M10 31C10 29.8954 10.8954 29 12 29H14C15.1046 29 16 29.8954 16 31V33C16 34.1046 15.1046 35 14 35H12C10.8954 35 10 34.1046 10 33V31ZM14 31V33H12V31H14Z" fill="black"/>
<path fill-rule="evenodd" clip-rule="evenodd" d="M20 29C18.8954 29 18 29.8954 18 31V33C18 34.1046 18.8954 35 20 35H22C23.1046 35 24 34.1046 24 33V31C24 29.8954 23.1046 29 22 29H20ZM22 31H20V33H22V31Z" fill="black"/>
<path d="M36 32.5C36 31.9477 35.5523 31.5 35 31.5C34.4477 31.5 34 31.9477 34 32.5V35.4142L35.2929 36.7071C35.6834 37.0976 36.3166 37.0976 36.7071 36.7071C37.0976 36.3166 37.0976 35.6834 36.7071 35.2929L36 34.5858V32.5Z" fill="black"/>
<path fill-rule="evenodd" clip-rule="evenodd" d="M12 7C12 6.44772 12.4477 6 13 6C13.5523 6 14 6.44772 14 7V12C14 12.5523 14.4477 13 15 13C15.5523 13 16 12.5523 16 12V9H26V7C26 6.44772 26.4477 6 27 6C27.5523 6 28 6.44772 28 7V12C28 12.5523 28.4477 13 29 13C29.5523 13 30 12.5523 30 12V9H33C34.6569 9 36 10.3432 36 12V28.0709C39.3923 28.5561 42 31.4735 42 35C42 38.866 38.866 42 35 42C32.6213 42 30.5196 40.8135 29.2547 39H9C7.34315 39 6 37.6569 6 36V12C6 10.3431 7.34315 9 9 9H12V7ZM28 35C28 31.4735 30.6077 28.5561 34 28.0709V18H8V36C8 36.5523 8.44772 37 9 37H28.2899C28.1013 36.3663 28 35.695 28 35ZM40 35C40 37.7614 37.7614 40 35 40C32.2386 40 30 37.7614 30 35C30 32.2386 32.2386 30 35 30C37.7614 30 40 32.2386 40 35Z" fill="black"/>
</svg>

<svg
  xmlns="http://www.w3.org/2000/svg"
  width="24"
  height="24"
  viewBox="0 0 24 24"
  fill="none"
  stroke="currentColor"
  stroke-width="2"
  stroke-linecap="round"
  stroke-linejoin="round"
>
  <path
    fill-rule="evenodd"
    d="M12 21a2 2 0 0 0-2 2v2a2 2 0 0 0 2 2h2a2 2 0 0 0 2-2v-2a2 2 0 0 0-2-2zm0 2v2h2v-2z"
    clip-rule="evenodd"
  />
  <path
    fill-rule="evenodd"
    d="M18 23a2 2 0 0 1 2-2h2a2 2 0 0 1 2 2v2a2 2 0 0 1-2 2h-2a2 2 0 0 1-2-2zm2 0h2v2h-2z"
    clip-rule="evenodd"
  />
  <path
    fill-rule="evenodd"
    d="M28 21a2 2 0 0 0-2 2v2a2 2 0 0 0 2 2h2a2 2 0 0 0 2-2v-2a2 2 0 0 0-2-2zm0 2v2h2v-2z"
    clip-rule="evenodd"
  />
  <path
    fill-rule="evenodd"
    d="M10 31a2 2 0 0 1 2-2h2a2 2 0 0 1 2 2v2a2 2 0 0 1-2 2h-2a2 2 0 0 1-2-2zm4 0v2h-2v-2z"
    clip-rule="evenodd"
  />
  <path
    fill-rule="evenodd"
    d="M20 29a2 2 0 0 0-2 2v2a2 2 0 0 0 2 2h2a2 2 0 0 0 2-2v-2a2 2 0 0 0-2-2zm2 2h-2v2h2z"
    clip-rule="evenodd"
  />
  <path d="M36 32.5a1 1 0 1 0-2 0v2.914l1.293 1.293a1 1 0 0 0 1.414-1.414L36 34.586z" />
  <path
    fill-rule="evenodd"
    d="M12 7a1 1 0 1 1 2 0v5a1 1 0 1 0 2 0V9h10V7a1 1 0 1 1 2 0v5a1 1 0 1 0 2 0V9h3a3 3 0 0 1 3 3v16.07A7.001 7.001 0 0 1 35 42a6.99 6.99 0 0 1-5.745-3H9a3 3 0 0 1-3-3V12a3 3 0 0 1 3-3h3zm16 28a7 7 0 0 1 6-6.93V18H8v18a1 1 0 0 0 1 1h19.29a7 7 0 0 1-.29-2m12 0a5 5 0 1 1-10 0 5 5 0 0 1 10 0"
    clip-rule="evenodd"
  />
</svg>
